src/pos-icons/cloud-upload.svg

<svg height="24" viewBox="0 0 24 24" width="24" xmlns="http://www.w3.org/2000/svg"><path d="m14 13v4h-4v-4h-3l5-5 5 5m2.35-2.97c-.68-3.44-3.71-6.03-7.35-6.03-2.89 0-5.4 1.64-6.65 4.03-3.01.33-5.35 2.87-5.35 5.97a6 6 0 0 0 6 6h13a5 5 0 0 0 5-5c0-2.64-2.05-4.78-4.65-4.97z"/></svg>

<?xml version="1.0" encoding="UTF-8"?><!DOCTYPE svg PUBLIC "-//W3C//DTD SVG 1.1//EN" "http://www.w3.org/Graphics/SVG/1.1/DTD/svg11.dtd"><svg xmlns="http://www.w3.org/2000/svg" xmlns:xlink="http://www.w3.org/1999/xlink" version="1.1" id="mdi-cloud-upload" width="24" height="24" viewBox="0 0 24 24"><path d="M14,13V17H10V13H7L12,8L17,13M19.35,10.03C18.67,6.59 15.64,4 12,4C9.11,4 6.6,5.64 5.35,8.03C2.34,8.36 0,10.9 0,14A6,6 0 0,0 6,20H19A5,5 0 0,0 24,15C24,12.36 21.95,10.22 19.35,10.03Z" /></svg>
